dist/assets/image/Email.svg

<svg width="32" height="32" viewBox="0 0 32 32" fill="none" xmlns="http://www.w3.org/2000/svg">
<path d="M25.3334 5.33333H6.66669C4.45755 5.33333 2.66669 7.1242 2.66669 9.33333V22.6667C2.66669 24.8758 4.45755 26.6667 6.66669 26.6667H25.3334C27.5425 26.6667 29.3334 24.8758 29.3334 22.6667V9.33333C29.3334 7.1242 27.5425 5.33333 25.3334 5.33333V5.33333ZM24.44 8L16 14.3333L7.56002 8H24.44ZM25.3334 24H6.66669C5.93031 24 5.33335 23.403 5.33335 22.6667V9.66667L15.2 17.0667C15.4308 17.2398 15.7115 17.3333 16 17.3333C16.2885 17.3333 16.5692 17.2398 16.8 17.0667L26.6667 9.66667V22.6667C26.6667 23.403 26.0697 24 25.3334 24Z" fill="#828282"/>
</svg>

<svg xmlns="http://www.w3.org/2000/svg" width="32" height="32" fill="none"><path d="M25.333 5.333H6.667a4 4 0 0 0-4 4v13.333a4 4 0 0 0 4 4h18.667a4 4 0 0 0 4-4V9.333a4 4 0 0 0-4-4zM24.44 8L16 14.333 7.56 8h16.88zm.893 16H6.667c-.736 0-1.333-.597-1.333-1.333v-13l9.867 7.4c.23.173.51.267.8.267s.57-.094.8-.267l9.867-7.4v13c0 .736-.597 1.333-1.333 1.333z" fill="#828282"/></svg>
